X:8
T:Poor Jack. JJo.008
S:J.Jones MS,1801,N.Shrops.
C:Charles Dibdin
N:An arr. of the song, ‘Poor Jack’, an ‘entertainment’
N:by Charles Dibdin. NeilB
A:N Shropshire
Z:Neil Brookes 2006
M:6/8
L:1/8
Q:3/8=60
K:D
A|ddd/e/ fff/g/|eee {f}g2 g|abf gec|dd’d’d’2A|!
ddd fff|eac’a2 A/B/|ccc dB^G|Aaaa2 A/B/|!
ceg bag|fff/g/ a2f/a/|gfe dcB|A3G3|!
FAd fgf|Hd2 {ed}c2d/e/|fff ffe|dfb Hf2 e|dfB ecA|!
Bbbb2B|bag gfg|aba afd|Bed ege|!
Hd2 {ed}c3a|dcB BAA|f>ed c2c|bag fga|bc’d’Ha2 f/d/|!
Bcd gec|dfa c’e’b|aed cag|fga d e/d/c|dAF D D2|]

